X:208
T:score284
L:1/4
Q:1/4=120
M:3/4
I:linebreak $
K:Ab
!p! c F d | (c3/2 B/) A |!f! f d c | =B2 c |!p! e c _B | =A2 B | B c d | d2 c- | %8
 c/B/ (A/G/) (A/B/) | G3 |] %10
